public/svg/feature_icon_11.svg

<svg width="28" height="33" viewBox="0 0 28 33" fill="none" xmlns="http://www.w3.org/2000/svg">
<path d="M4 1.61914H24V7.6333H4V1.61914Z" stroke="black" stroke-width="2" stroke-linecap="round" stroke-linejoin="round"/>
<path d="M14 7.6333V25.6748" stroke="black" stroke-width="2" stroke-linecap="round" stroke-linejoin="round"/>
<path d="M4 25.6748V19.6609C4 19.1292 4.21071 18.6193 4.58579 18.2434C4.96086 17.8675 5.46957 17.6563 6 17.6562H22C22.5304 17.6563 23.0391 17.8675 23.4142 18.2434C23.7893 18.6193 24 19.1292 24 19.6609V25.6748" stroke="black" stroke-width="2" stroke-linecap="round" stroke-linejoin="round"/>
<path d="M1 28.6816C1 29.0765 1.0776 29.4675 1.22836 29.8323C1.37913 30.1971 1.6001 30.5286 1.87868 30.8078C2.15726 31.087 2.48797 31.3085 2.85195 31.4596C3.21593 31.6107 3.60603 31.6885 4 31.6885C4.39397 31.6885 4.78407 31.6107 5.14805 31.4596C5.51203 31.3085 5.84274 31.087 6.12132 30.8078C6.3999 30.5286 6.62087 30.1971 6.77164 29.8323C6.9224 29.4675 7 29.0765 7 28.6816C7 28.2868 6.9224 27.8958 6.77164 27.531C6.62087 27.1662 6.3999 26.8347 6.12132 26.5555C5.84274 26.2763 5.51203 26.0548 5.14805 25.9037C4.78407 25.7526 4.39397 25.6748 4 25.6748C3.60603 25.6748 3.21593 25.7526 2.85195 25.9037C2.48797 26.0548 2.15726 26.2763 1.87868 26.5555C1.6001 26.8347 1.37913 27.1662 1.22836 27.531C1.0776 27.8958 1 28.2868 1 28.6816V28.6816Z" stroke="black" stroke-width="2" stroke-linecap="round" stroke-linejoin="round"/>
<path d="M11 28.6816C11 29.0765 11.0776 29.4675 11.2284 29.8323C11.3791 30.1971 11.6001 30.5286 11.8787 30.8078C12.1573 31.087 12.488 31.3085 12.8519 31.4596C13.2159 31.6107 13.606 31.6885 14 31.6885C14.394 31.6885 14.7841 31.6107 15.1481 31.4596C15.512 31.3085 15.8427 31.087 16.1213 30.8078C16.3999 30.5286 16.6209 30.1971 16.7716 29.8323C16.9224 29.4675 17 29.0765 17 28.6816C17 28.2868 16.9224 27.8958 16.7716 27.531C16.6209 27.1662 16.3999 26.8347 16.1213 26.5555C15.8427 26.2763 15.512 26.0548 15.1481 25.9037C14.7841 25.7526 14.394 25.6748 14 25.6748C13.606 25.6748 13.2159 25.7526 12.8519 25.9037C12.488 26.0548 12.1573 26.2763 11.8787 26.5555C11.6001 26.8347 11.3791 27.1662 11.2284 27.531C11.0776 27.8958 11 28.2868 11 28.6816V28.6816Z" stroke="black" stroke-width="2" stroke-linecap="round" stroke-linejoin="round"/>
<path d="M21 28.6816C21 29.0765 21.0776 29.4675 21.2284 29.8323C21.3791 30.1971 21.6001 30.5286 21.8787 30.8078C22.1573 31.087 22.488 31.3085 22.8519 31.4596C23.2159 31.6107 23.606 31.6885 24 31.6885C24.394 31.6885 24.7841 31.6107 25.1481 31.4596C25.512 31.3085 25.8427 31.087 26.1213 30.8078C26.3999 30.5286 26.6209 30.1971 26.7716 29.8323C26.9224 29.4675 27 29.0765 27 28.6816C27 28.2868 26.9224 27.8958 26.7716 27.531C26.6209 27.1662 26.3999 26.8347 26.1213 26.5555C25.8427 26.2763 25.512 26.0548 25.1481 25.9037C24.7841 25.7526 24.394 25.6748 24 25.6748C23.606 25.6748 23.2159 25.7526 22.8519 25.9037C22.488 26.0548 22.1573 26.2763 21.8787 26.5555C21.6001 26.8347 21.3791 27.1662 21.2284 27.531C21.0776 27.8958 21 28.2868 21 28.6816V28.6816Z" stroke="black" stroke-width="2" stroke-linecap="round" stroke-linejoin="round"/>
</svg>

<svg xmlns="http://www.w3.org/2000/svg" width="28" height="33" fill="none"  stroke="#000" stroke-width="2" stroke-linejoin="round" xmlns:v="https://vecta.io/nano"><path d="M4 1.619h20v6.014H4V1.619z"/><g stroke-linecap="round"><path d="M14 7.633v18.042"/><path d="M4 25.675v-6.014c0-.532.211-1.042.586-1.418A2 2 0 0 1 6 17.656h16a2 2 0 0 1 1.414.587c.375.376.586.886.586 1.418v6.014"/></g><path d="M1 28.682a3.03 3.03 0 0 0 .228 1.151 3.01 3.01 0 0 0 .65.976 3 3 0 0 0 .973.652c.364.151.754.229 1.148.229s.784-.078 1.148-.229a3 3 0 0 0 .973-.652c.279-.279.5-.611.65-.976a3.03 3.03 0 0 0 .002-2.302 3.01 3.01 0 0 0-.65-.976 3 3 0 0 0-.973-.652c-.364-.151-.754-.229-1.148-.229s-.784.078-1.148.229a3 3 0 0 0-.973.652c-.279.279-.5.611-.65.976A3.03 3.03 0 0 0 1 28.682h0zm10 0a3.01 3.01 0 0 0 .228 1.151 3.03 3.03 0 0 0 .65.976 3 3 0 0 0 .973.652c.364.151.754.229 1.148.229s.784-.078 1.148-.229a3 3 0 0 0 .973-.652c.279-.279.5-.611.65-.976a3.01 3.01 0 0 0 0-2.301 3.03 3.03 0 0 0-.65-.976 3 3 0 0 0-.973-.652c-.364-.151-.754-.229-1.148-.229s-.784.078-1.148.229a3 3 0 0 0-.973.652c-.279.279-.5.611-.65.976a3.01 3.01 0 0 0-.228 1.15h0zm10 0a3.01 3.01 0 0 0 .228 1.151 3.03 3.03 0 0 0 .65.976 3 3 0 0 0 .973.652c.364.151.754.229 1.148.229s.784-.078 1.148-.229a3 3 0 0 0 .973-.652c.279-.279.5-.611.65-.976a3.01 3.01 0 0 0 0-2.301 3.03 3.03 0 0 0-.65-.976 3 3 0 0 0-.973-.652c-.364-.151-.754-.229-1.148-.229s-.784.078-1.148.229a3 3 0 0 0-.973.652c-.279.279-.5.611-.65.976a3.01 3.01 0 0 0-.228 1.15h0z"/></svg>
